X:1
T:Maria durch ein' Dornwald ging
T:Maria durch ein' Dornwald ging
T:Hugo Distler 
C:Hugo Distler
%%score [ 1 2 3 ]
L:1/8
Q:1/4=80
M:4/4
K:Bb
V:1 treble nm="Soprano"
V:2 treble nm="Alto"
V:3 bass nm="Bass"
V:1
 D2 | G3 A B2 d2 | B- B A G A2- !breath!A2 | B2 B B c4 |[M:6/4] d8 z2 (Bc) |[M:4/4] d3 d d2 f2 | %6
w: 1.Ma-|ri- a durch ein'|Dorn- * wald _ ging. _|Ky- ri- e- lei-|son. Ma- *|ri- a duch ein'|
w: 2.Was|trug Ma- ri- a|un- ter ih- rem Her- zen?|Ky- ri- e- lei-|son. Ein _|klei- nes Kind- lein|
 c3 B c- !breath!c d2 | B3 A B B c B | A3 G A2- !breath!A2 | G3 A B2 d2 | (B3 A) G2 :| D2 | %12
w: Dorn- walg ging, _ der|hat in sie- ben Jahr'n kein|Laub ge- trag'n. _|Je- sus und Ma-|ri- * a.|3.Da|
w: oh- ne Schmer- zen, das|trug Ma- ri- a un- ter|ih- rem Her- zen.|Je- sus und Ma-|ri- * a.||
 G2 G A B2 d2 |[M:6/4] (cB) A G D4 !breath!A4 |[M:4/4] B2 B B c4 | d4 z2 !courtesy!_B c | %16
w: ha- ben die Dor- nen|Ro- * sen ge- tra- gen.|Ky- ri- e- lei-|son. Als das|
w: ||||
 d4 d2 d f |[M:3/4] c c !breath!c2 (fd) |[M:6/8] B B B c2 B |[M:6/4] A2 A d !breath!A8 | %20
w: Kind- lein durch den|Wald ge- trag'n, da _|ha- ben die Dor- nen|Ro- sen ge- trag'n.|
w: ||||
[M:4/4] (G3 A B2 c2- | c2) B2 A2 G2 | A4 =B4 |] %23
w: Je- * * *|* sus und Ma-|ri- a.|
w: |||
V:2
 z2 | z8 | z8 | D3 F (FE) B2 |[M:6/4] A4 G4 z2 B2 |[M:4/4] A2 !breath!A3 A A2 | A2 A A ((G3 F | %7
w: |||Ky- ri- e- * lei-|son. _ 1.Ma-|ri- a, Ma- ri-|a durch ein' Dorn- *|
w: ||||* * 2.Ein|Kind- lein, ein Kind-|lein oh- ne Schmer- *|
 E2 D4) C2) | !breath!D8 | =E2 D3 G G2 | (GAGF) D2 :| D2 | D2 =E F G2 F2 | %13
w: * * wald|ging.|Je- sus und Ma-|ri- * * * a.|3.Da|ha- ben die Dor- nen|
w: |zen.|Je- sus und Ma-|ri- * * * a.|||
[M:6/4] F2 =E D E4 !breath!^F4 |[M:4/4] A2 G =F (G2 A2) | =B4 z2 G2- | G G _B2 A2 G F | %17
w: Ro- sen ge- tra- gen.|Ky- ri- e- lei- *|son. Als|_ das Kind- lein durch den|
w: ||||
[M:3/4] G G !breath!D2 (EF) |[M:6/8] G G F E2 B, |[M:6/4] F2 F F (=E4 D4) |[M:4/4] (_E4 D2 CD | %21
w: Wald ge- trag'n, da _|ha- ben die Dor- nen|Ro- sen ge- trag'n. _|Je- * * *|
w: ||||
 EF G3) F E D | C4 [DG]4 |] %23
w: * * * sus und Ma-|ri- a.|
w: ||
V:3
 z2 | z8 | z8 | G,2 A, F, G,4 |[M:6/4] G,8 z4 |[M:4/4] z8 | z8 | z8 | z8 | C2 A,4 A, G, | %10
w: |||Ky- ri- e- lei-|son.|||||Je- sus und Ma-|
 (E,2 F,2) G,2 :| B,2 | A,2 G, F, E,2 B,,2 |[M:6/4] F,2 F, F, G,4 !breath!D,4 |[M:4/4] D2 D D C4 | %15
w: ri- * a.|3.Da|ha- ben die Dor- nen|Ro- sen ge- tra- gen.|Ky- ri- e- lei-|
 G,4 z4 | z8 |[M:3/4] z6 |[M:6/8] z6 |[M:6/4] z12 |[M:4/4] (C4 B,2 _A,2- | A,2) E,2 E,2 E,2 | %22
w: son.|||||Je- * *|* sus und Ma-|
 F,4 G,4 |] %23
w: ri- a.|

